X:229
T: Der Wirtin Tchterlein (11), S. 53
N: T0117
O: Luxemburg
S: Singendes Volk, Esch-Alzette 1937 posth.]
N: HEFFINGEN; gesungen von Frau Klemens-Wetz
N: am 12.5.1935
R: "erzhlende Lieder"]
M: 3/8
L: 1/16
K: G
B2 | G2G2B2 | d4
BB | d2c2B2 | A4
c2 | B2A2B2 | B2A2
GG | F4A2 | G4

@@@ Tune index: 8283
